assets/img/braze_icons/refresh-ccw-01.svg

<svg fill="none" height="24" viewBox="0 0 24 24" width="24" xmlns="http://www.w3.org/2000/svg"><path d="m6.34108 6.34511c1.44897-1.44997 3.44841-2.34511 5.65882-2.34511 4.4183 0 8 3.58172 8 8 0 4.4183-3.5817 8-8 8-3.64574 0-6.72429-2.4395-7.68744-5.7773-.15312-.5306-.70741-.8366-1.23805-.6835-.53063.1531-.83667.7074-.68354 1.2381 1.20354 4.1708 5.04858 7.2227 9.60903 7.2227 5.5228 0 10-4.4772 10-10 0-5.52285-4.4772-10-10-10-2.7624 0-5.26478 1.12139-7.07352 2.93138-.63607.63651-1.32058 1.42634-1.92638 2.16296v-3.09434c0-.55228-.44772-1-1-1s-1 .44772-1 1v6c0 .5523.44772 1 1 1h6c.55228 0 1-.4477 1-1 0-.55228-.44772-1-1-1h-3.96927c.6841-.85856 1.54611-1.89013 2.31035-2.65489z" fill="#801ed7"/></svg>

<svg width="24" height="24" viewBox="0 0 24 24" fill="none" xmlns="http://www.w3.org/2000/svg">
<path d="M6.34108 6.34511C7.79005 4.89514 9.78949 4 11.9999 4C16.4182 4 19.9999 7.58172 19.9999 12C19.9999 16.4183 16.4182 20 11.9999 20C8.35416 20 5.27561 17.5605 4.31246 14.2227C4.15934 13.6921 3.60505 13.3861 3.07441 13.5392C2.54378 13.6923 2.23774 14.2466 2.39087 14.7773C3.59441 18.9481 7.43945 22 11.9999 22C17.5227 22 21.9999 17.5228 21.9999 12C21.9999 6.47715 17.5227 2 11.9999 2C9.2375 2 6.73512 3.12139 4.92638 4.93138C4.29031 5.56789 3.6058 6.35772 3 7.09434V4C3 3.44772 2.55228 3 2 3C1.44772 3 1 3.44772 1 4V10C1 10.5523 1.44772 11 2 11H8C8.55228 11 9 10.5523 9 10C9 9.44772 8.55228 9 8 9H4.03073C4.71483 8.14144 5.57684 7.10987 6.34108 6.34511Z" fill="#801ED7"/>
</svg>
